svg/earbuds_off.svg

<svg xmlns="http://www.w3.org/2000/svg" viewBox="0 0 24 24"><path d="m10 9.34 1.56 1.57v-.01l2.54 2.55-.01-.01 1.49 1.49h.01l2.91 2.91v.01l3.61 3.61-1.27 1.27-2.41-2.4c-.13.39-.49.67-.93.67h-2c-.55 0-1-.45-1-1v-3.61l-4.5-4.5V20c0 .55-.45 1-1 1H8c-.55 0-1-.45-1-1v-6.73c-.68.45-1.39.73-2 .73-2 0-3-2-3-3V6c0-.42.19-1 .55-1.57L1.11 3l1.28-1.27L6.1 5.44M22 8.5C22 5.46 19.54 3 16.5 3c-2.81 0-5.13 2.12-5.46 4.84l6.12 6.12A5.496 5.496 0 0 0 22 8.5"/></svg>

<svg xmlns="http://www.w3.org/2000/svg" id="mdi-earbuds-off" viewBox="0 0 24 24"><path d="M10 9.34V9.34L11.56 10.91L11.56 10.9L14.1 13.45L14.09 13.44L15.58 14.93L15.59 14.93L18.5 17.84V17.85L22.11 21.46L20.84 22.73L18.43 20.33C18.3 20.72 17.94 21 17.5 21H15.5C14.95 21 14.5 20.55 14.5 20V16.39L10 11.89V20C10 20.55 9.55 21 9 21H8C7.45 21 7 20.55 7 20V13.27C6.32 13.72 5.61 14 5 14C3 14 2 12 2 11V6C2 5.58 2.19 5 2.55 4.43L1.11 3L2.39 1.73L6.1 5.44M22 8.5C22 5.46 19.54 3 16.5 3C13.69 3 11.37 5.12 11.04 7.84L17.16 13.96C19.89 13.63 22 11.32 22 8.5Z" /></svg>
